X:200
T:Reel des p'tits-minous
S:Marcel Messervier
Z:robin.beech@mcgill.ca
M:2/4
L:1/16
K:G
def |: g2B2d2G2 | B2D2 G3B | A2FA DFAF | GABG ddef |
g2B2d2G2 | B2D2 G3B | A2FA DFAF |1 GBAF Gdef :|2 GBAF G2A2 |:
B2BA G2B2 | dcde d2B2 | ABAG FDFA | dcde d2B2 |
B2BA G2gf | edef e4 | d2fe ddBA | GGBd g2g2 :|

